X:21
T:Lichtmann 21
C:C. M. Von Weber
M:C
L:1/8
Q:"Adagio" 1/4=58
K:D
!p!(A4"_sostenuto"F2) (DF)|(E3G/F/E2)z2|(F4D2) (FA)|(A3GF2)z2|(d4B2) (GB)|
(A4F2) (DF)|(AG)E2(GF)D2|(E6A2)|(A4F2)(DF)|(E3G/F/E2) z2|
(F4D2) (FA)|(A3AB2) z2|(d4B2) (GB)|(A4F2) (DF)|A>D (F4E2)|D6|]

